X: 23765
T: Little Diamond, The
R: polka
M: 2/4
K: Dmajor
|:B^A|A>B AF|DE FD|A>B AF|GF EF/E/|
DE F/F/G|AB c/c/d|e/f/e/d/ ce|dA:|
|:de|f^e/f/ g=e|fd c>B|Ad cd|fe e^d/e/|
fd g>e|fd c>B|Ag ec|d2-:|

